icon-themes/breeze_svg/svx/res/fr08.svg

<svg viewBox="0 0 24 24" xmlns="http://www.w3.org/2000/svg"><path d="m4 3v1 15 1h17v-1-15-1h-1-15zm1 1h15v15h-15z" fill="#f47750"/></svg>

<svg xmlns="http://www.w3.org/2000/svg" viewBox="0 0 24 24">
 <path 
     style="fill:#f47750" 
     d="M 4 3 L 4 4 L 4 19 L 4 20 L 21 20 L 21 19 L 21 4 L 21 3 L 20 3 L 5 3 L 4 3 z M 5 4 L 20 4 L 20 19 L 5 19 L 5 4 z "
     />
 </svg>
